X:1
T:Title
%%score 1 { 2 | 3 }
L:1/8
Q:1/4=98
M:4/4
K:Eb
V:1 treble nm="Grand Piano, Soprano"
V:2 treble nm="Choir Pad, Like a Star of the Morning"
V:3 bass 
V:1
 [EG]>[FA] [GB]2 [GB]>[GB] [Ac][GB] | [EG]E [DF]4 E2 | [EG][GB] [Ac]2 [Ac]>[Ac] [Af][Ae] | %3
w: By~Edmund~Simon~Lorenz * * * * * *|||
 [Ad][Ac] [GB]6 | [EG]>[FA] [GB]2 [GB]>[GB] [Ac][GB] | [EG]E [Ee]4 [Ed]2 | %6
w: |||
 [Ee][Ec][Ec][EB] [EG][EB][DB][DA] | [DF][B,D] [B,E]6 | [EB]>[Ec] [DB]2 [B,D]3 [DF] | %9
w: |||
 [DB][Dc] [EB]2 [B,E]4 | [EB][Ec][DB][Fd] [Fd][Fd][Ad][Ac] | [Ad]/[Ad]/[Af] [Ge]4 [GB]2 | %12
w: |||
 [EG]>[FA] [GB]2 [GB]>[GB] [Ac][GB] | [EG]E [Ee]4 [Ed]2 | [Ee][Ec][Ec][EB] [EG][EB][DB][DA] | %15
w: |||
 [DF][B,D] [B,E]6- | [B,E]2 z2 z4 |] %17
w: ||
V:2
 B,>B, E2 E>E EE | B,G, A,4 G,2 | B,[K:treble]E E2 E>D CC | DE E6 | B,>B, E2 E>E EE | B,B, C4 B,2 | %6
 CA,G,G, B,G,F,F, | A,F, G,6 | G,>G, F,F, F,F,F,B, | B,A,G,G, G,G, G,2 | G,G,F,B, B,B,B,B, | %11
 B,/B,/B, B,B, B,B, E2 | B,>B,[K:treble] E2 E>E EE | B,B, C4 B,2 | CA,G,G, B,G,F,F, | A,F, G,6- | %16
 G,2 z2 z4 |] %17
V:3
 E,>E, E,2 E,>E, E,E, | E,E, B,,4 E,2 | E,E, A,2 A,>A, A,A, | A,A, E,6 | E,>E, E,2 E,>E, E,E, | %5
 E,G, A,4 A,2 | A,,A,,B,,B,, B,,B,,B,,B,, | B,,B,, E,6 | E,>E, B,,B,, B,,B,,B,,B,, | %9
 B,,B,,E,E, E,E, E,2 | E,E,B,,B,, B,,B,,B,,B,, | B,,/B,,/B,, E,E, E,E, E,2 | E,>E, E,2 E,>E, E,E, | %13
 E,G, A,4 A,2 | A,,A,,B,,B,, B,,B,,B,,B,, | B,,B,, E,6- | E,2 z2 z4 |] %17

